static/images/recipes2.svg

<svg height="87" viewBox="0 0 87 87" width="87" xmlns="http://www.w3.org/2000/svg"><g fill="none" fill-rule="evenodd"><circle cx="43.505882" cy="43.505882" fill="#02afde" r="43.505882"/><path d="m52.9499615 48.899923c-1.7626702 0-3.2583683 1.1277929-3.8140784 2.700154h-4.2858061v-6.75h4.2859987c.5557101 1.5721685 2.0512156 2.6999615 3.8140784 2.6999615 2.2357461 0 4.0498459-1.8139072 4.0498459-4.0498459 0-2.2369018-1.8140998-4.0506164-4.0498459-4.0506164-1.7626702 0-3.2583683 1.1285635-3.8140784 2.700732h-4.2859987v-6.7503852c0-1.4910753-1.2088862-2.6999615-2.6999614-2.6999615h-4.2856134c-.5560954-1.5721685-2.0521788-2.6999615-3.8144637-2.6999615-2.2361313 0-4.0500385 1.8131367-4.0500385 4.049268 0 2.2369018 1.8137146 4.0506164 4.0500385 4.0506164 1.7622849 0 3.2575978-1.127793 3.8142711-2.7001541h4.2856134v16.2001541c0 1.4908827 1.2088862 2.6999615 2.6999614 2.6999615h4.2859987c.5564806 1.5715906 2.0512156 2.7001541 3.8140784 2.7001541 2.2357461 0 4.0498459-1.8140998 4.0498459-4.0500385.0001926-2.2372871-1.8139072-4.0500385-4.0498459-4.0500385zm0-6.75c.7448634 0 1.350077.6042504 1.350077 1.350077 0 .7448635-.6052136 1.350077-1.350077 1.350077-.7448635 0-1.3500771-.6052135-1.3500771-1.350077.0001926-.7458266.6052136-1.350077 1.3500771-1.350077zm-18.899923-6.75c-.7452487 0-1.350077-.6048284-1.350077-1.350655 0-.7458265.6048283-1.3493065 1.350077-1.3493065s1.3498845.6042505 1.3498845 1.3493065c0 .7450561-.6046358 1.350655-1.3498845 1.350655zm18.899923 18.8999229c-.7448635 0-1.3500771-.6052136-1.3500771-1.350077 0-.7460192.6052136-1.3498845 1.3500771-1.3498845.7448634 0 1.350077.6038653 1.350077 1.3498845 0 .745056-.605021 1.350077-1.350077 1.350077z" fill="#fff" fill-rule="nonzero" transform="matrix(0 1 -1 0 87 0)"/></g></svg>

<?xml version="1.0" encoding="UTF-8"?>
<svg width="87px" height="87px" viewBox="0 0 87 87" version="1.1" xmlns="http://www.w3.org/2000/svg" xmlns:xlink="http://www.w3.org/1999/xlink">
    <!-- Generator: sketchtool 46.2 (44496) - http://www.bohemiancoding.com/sketch -->
    <title>4D98C2CD-BC07-48BC-9D6D-79C32B2B7365</title>
    <desc>Created with sketchtool.</desc>
    <defs></defs>
    <g id="Page-1" stroke="none" stroke-width="1" fill="none" fill-rule="evenodd">
        <g id="icons" transform="translate(-1029.000000, -51.000000)">
            <g id="2" transform="translate(1021.000000, 51.000000)">
                <g id="ic/cohorts" transform="translate(8.000000, 0.000000)">
                    <circle id="Oval-4-Copy" fill="#02AFDE" cx="43.5058824" cy="43.5058824" r="43.5058824"></circle>
                    <path d="M52.9499615,48.899923 C51.1872913,48.899923 49.6915932,50.0277159 49.1358831,51.600077 L44.850077,51.600077 L44.850077,44.850077 L49.1360757,44.850077 C49.6917858,46.4222455 51.1872913,47.5500385 52.9501541,47.5500385 C55.1859002,47.5500385 57,45.7361313 57,43.5001926 C57,41.2632908 55.1859002,39.4495762 52.9501541,39.4495762 C51.1874839,39.4495762 49.6917858,40.5781397 49.1360757,42.1503082 L44.850077,42.1503082 L44.850077,35.399923 C44.850077,33.9088477 43.6411908,32.6999615 42.1501156,32.6999615 L37.8645022,32.6999615 C37.3084068,31.127793 35.8123234,30 34.0500385,30 C31.8139072,30 30,31.8131367 30,34.049268 C30,36.2861698 31.8137146,38.0998844 34.0500385,38.0998844 C35.8123234,38.0998844 37.3076363,36.9720914 37.8643096,35.3997303 L42.149923,35.3997303 L42.149923,51.5998844 C42.149923,53.0907671 43.3588092,54.2998459 44.8498844,54.2998459 L49.1358831,54.2998459 C49.6923637,55.8714365 51.1870987,57 52.9499615,57 C55.1857076,57 56.9998074,55.1859002 56.9998074,52.9499615 C57,50.7126744 55.1859002,48.899923 52.9499615,48.899923 Z M52.9499615,42.149923 C53.6948249,42.149923 54.3000385,42.7541734 54.3000385,43.5 C54.3000385,44.2448635 53.6948249,44.850077 52.9499615,44.850077 C52.205098,44.850077 51.5998844,44.2448635 51.5998844,43.5 C51.600077,42.7541734 52.205098,42.149923 52.9499615,42.149923 Z M34.0500385,35.399923 C33.3047898,35.399923 32.6999615,34.7950946 32.6999615,34.049268 C32.6999615,33.3034415 33.3047898,32.6999615 34.0500385,32.6999615 C34.7952872,32.6999615 35.399923,33.304212 35.399923,34.049268 C35.399923,34.7943241 34.7952872,35.399923 34.0500385,35.399923 Z M52.9499615,54.2998459 C52.205098,54.2998459 51.5998844,53.6946323 51.5998844,52.9497689 C51.5998844,52.2037497 52.205098,51.5998844 52.9499615,51.5998844 C53.6948249,51.5998844 54.3000385,52.2037497 54.3000385,52.9497689 C54.3000385,53.6948249 53.6950175,54.2998459 52.9499615,54.2998459 Z" id="Shape" fill="#FFFFFF" fill-rule="nonzero" transform="translate(43.500000, 43.500000) rotate(-270.000000) translate(-43.500000, -43.500000) "></path>
                </g>
            </g>
        </g>
    </g>
</svg>
